Papirus/32x32/apps/org.gnome.DiskUtility.svg

<svg width="32" height="32" version="1.1" xmlns="http://www.w3.org/2000/svg">
 <rect x="5" y="3" width="22" height="28" rx="2.0999999" ry="2.277" style="opacity:.2"/>
 <rect x="5" y="2" width="22" height="28" rx="2" ry="2" style="fill:#e4e4e4"/>
 <path d="m10 3c-0.5847773 0-1 0.3998334-1 1 0 1.1318381-0.8984375 2-2 2-0.5847754 0-1 0.3998333-1 1v1c0 0.6001673 0.4152231 1 1 1 1.1009496 0 2 0.8926137 2 2 0 0.84375-0.5050481 1.452459-0.765625 1.75-1.5627945 1.785504-2.2306327 4.099879-2.234375 6.5 0 0.03222 0.00355 0.0544 0.00391 0.08594-0.0026682 0.091771-0.0039704 0.183577-0.00391 0.275388 1.212e-4 5.185256 4.753381 9.388672 10 9.388672s9.999558-4.203416 9.999679-9.388672c1.79e-4 -0.09572-0.0011-0.191431-0.0039-0.287109 2.27e-4 -0.02748 0.0039-0.04622 0.0039-0.07422-0.0042-2.400347-0.670971-4.714751-2.234375-6.5-0.260482-0.297579-0.765304-0.749999-0.765304-1.749999 0-1.0927765 0.898985-2 2-2 0.584776 0 1-0.3998326 1-1v-1c0-0.6001667-0.415224-1-1-1-1.11664 0-2-0.9072244-2-2 0-0.6001666-0.415222-1-1-1zm-3 0c-0.5563635 0-1 0.4529141-1 1s0.4387543 1 1 1 1-0.4436365 1-1-0.4436365-1-1-1zm18 0c-0.569365 0-1 0.4504705-1 1s0.434845 1 1 1 1-0.4660955 1-1-0.430635-1-1-1zm-18 7c-0.5763657 0-1 0.462304-1 1s0.4291586 1 1 1 1-0.462304 1-1-0.4236343-1-1-1zm18 0c-0.569061 0-1 0.454377-1 1s0.442658 1 1 1 1-0.45047 1-1-0.430939-1-1-1zm-18 17c-0.572967 0-1 0.434845-1 1s0.473908 1 1 1 1-0.427033 1-1-0.427033-1-1-1zm18 0c-0.554269 0-1 0.451256-1 1s0.462304 1 1 1 1-0.440207 1-1-0.445731-1-1-1z" style="fill:#ababab"/>
 <path d="m10 3c-0.5847773 0-1 0.3998334-1 1 0 1.1456107-0.8952259 2-2 2-0.5790674 0-1 0.3769526-1 1v1c0-0.6001667 0.4152246-1 1-1 1.1064739 0 2-0.8815661 2-2 0-0.6001666 0.4152227-1 1-1h12c0.584778 0 1 0.3998334 1 1 0 1.1084006 0.883359 2 2 2 0.584776 0 1 0.3998333 1 1v-1c0-0.6034867-0.421875-1-1-1-1.087059 0-2-0.8815159-2-2 0-0.6001666-0.415222-1-1-1zm-3 0c-0.5321715 0-1 0.4366314-1 1 0 0.3058914 0.1335568 0.5007103 0.1335568 0.5007103s0.2618385-0.5007103 0.8664432-0.5007103 0.8676234 0.5027805 0.8676234 0.5027805 0.1323766-0.2086078 0.1323766-0.5027805c0-0.5744171-0.4678285-1-1-1zm18 0c-0.600311 0-1 0.4882813-1 1 0 0.29837 0.132813 0.5020046 0.132813 0.5020046s0.247437-0.5020046 0.867187-0.5020046 0.865194 0.4985186 0.865194 0.4985186 0.134806-0.2238772 0.134806-0.4985186c0-0.5078125-0.399689-1-1-1zm-19 8c0 0.294173 0.1336862 0.500468 0.1336862 0.500468s0.2437567-0.500468 0.8663138-0.500468 0.8663138 0.500468 0.8663138 0.500468 0.1336862-0.195185 0.1336862-0.500468c0-0.499238-0.3879705-1-1-1s-1 0.498919-1 1zm19-1c-0.62056 0-1 0.518618-1 1 0 0.290761 0.134175 0.499638 0.134175 0.499638s0.245203-0.499638 0.865825-0.499638 0.866324 0.500512 0.866324 0.500512 0.133676-0.218059 0.133676-0.500512c0-0.478925-0.37944-1-1-1zm-16.765626 2.75c-1.5627945 1.785504-2.2306327 4.099879-2.234375 6.5 0 0.353757 0.00292 0.607244 0.00977 0.755861 0.047645-2.31208 0.7151365-4.531275 2.2246094-6.255859 0.3055711-0.351923 0.7656211-0.750002 0.7656211-1.750002 0-0.140625-0.030418-0.35225-0.061668-0.492875-0.1523436 0.660156-0.7039575 1.242875-0.7039575 1.242875zm14.765626-0.75c0 1 0.521175 1.456823 0.765308 1.75 1.508783 1.722878 2.175601 3.939831 2.224609 6.25 6e-3 -0.129477 0.0092-0.259062 0.0098-0.388672 1.79e-4 -0.09572-0.0011-0.191431-0.0039-0.287109 2.27e-4 -0.02748 0.0039-0.04622 0.0039-0.07422-0.0042-2.400347-0.670971-4.714751-2.234375-6.5-0.308405-0.335036-0.615706-0.724236-0.710938-1.213406-0.022097 0.143631-0.054404 0.308629-0.054404 0.463407zm-16 15c-0.664754 0-1 0.541593-1 1 0 0.311855 0.1350288 0.498149 0.1350288 0.498149s0.2667947-0.498149 0.8649712-0.498149 0.8659789 0.499895 0.8659789 0.499895 0.1340211-0.204612 0.1340211-0.499895c0-0.469456-0.335246-1-1-1zm18 0c-0.62056 0-1 0.519496-1 1 0 0.311855 0.135922 0.496639 0.135922 0.496639s0.255241-0.496639 0.864078-0.496639 0.865506 0.499107 0.865506 0.499107 0.134494-0.214873 0.134494-0.499107c0-0.486028-0.37944-1-1-1z" style="opacity:.2"/>
 <path d="m16.286439 11.999999c-0.60999 0-1.201223 0.140241-1.74641 0.330156l2.879223 2.876843c0.591681 0.59118 0.591681 1.531041 0 2.122254l-1.085609 1.084709c-0.591685 0.591181-1.532334 0.591181-2.124019 0l-2.87922-2.876839c-0.190085 0.544713-0.330404 1.135467-0.330404 1.744959 0 2.917207 2.366821 5.282052 5.286439 5.282052 0.609994 0 1.201227-0.140243 1.746417-0.330124l7.84221 7.852349c2.520743 2.525589 5.680366-0.731588 3.256816-3.159795l-7.889406-7.89952c0.190082-0.544714 0.330399-1.135468 0.330399-1.744959 0-2.917207-2.366818-5.282085-5.286441-5.282085z" style="opacity:.2"/>
 <path d="m16.286439 10.999999c-0.60999 0-1.201223 0.140241-1.74641 0.330156l2.879223 2.876843c0.591681 0.59118 0.591681 1.531041 0 2.122254l-1.085609 1.084709c-0.591685 0.591181-1.532334 0.591181-2.124019 0l-2.87922-2.876839c-0.190085 0.544713-0.330404 1.135467-0.330404 1.744959 0 2.917207 2.366821 5.282052 5.286439 5.282052 0.609994 0 1.201227-0.140243 1.746417-0.330124l7.84221 7.852349c2.520743 2.525589 5.680366-0.731588 3.256816-3.159795l-7.889406-7.89952c0.190082-0.544714 0.330399-1.135468 0.330399-1.744959 0-2.917207-2.366818-5.282085-5.286441-5.282085z" style="fill:#4f4f4f"/>
 <path d="m7 2c-1.1165251 0-2 0.90625-2 2v1c0-1.159853 0.8834749-2 2-2h18c1.1009 0 1.992188 0.871397 2 2v-1c0-1.1207905-0.891287-2-2-2z" style="fill:#ffffff;opacity:.2"/>
</svg>

<svg xmlns="http://www.w3.org/2000/svg" width="32" height="32" version="1.1">
 <rect style="opacity:0.2" width="22" height="28" x="5" y="3" rx="2" ry="2"/>
 <rect style="fill:#e4e4e4" width="22" height="28" x="5" y="2" rx="2" ry="2"/>
 <path style="fill:#ababab" d="M 10,3 C 9,3 9,4 9,4 9,5.13 8.1,6 7,6 6.07,6 6,7 6,7 V 8 C 6,9 7,9 7,9 8.1,9 9,9.89 9,11 9,11.84 8.49,12.45 8.23,12.75 6.67,14.54 6,16.85 6,19.25 6,19.28 6,19.3 6,19.34 6,19.43 6,19.52 6,19.61 6,24.8 10.75,29 16,29 21.25,29 26,24.8 26,19.61 26,19.52 26,19.42 26,19.32 26,19.3 26,19.28 26,19.25 26,16.85 25.33,14.54 23.77,12.75 23.5,12.45 23,12 23,11 23,9.91 23.9,9 25,9 25,9 26,9 26,8 V 7 C 26,7 26,6 25,6 23.88,6 23,5.09 23,4 23,4 23.05,3 22,3 Z M 7,3 A 1,1 0 0 0 6,4 1,1 0 0 0 7,5 1,1 0 0 0 8,4 1,1 0 0 0 7,3 Z M 25,3 A 1,1 0 0 0 24,4 1,1 0 0 0 25,5 1,1 0 0 0 26,4 1,1 0 0 0 25,3 Z M 7,10 A 1,1 0 0 0 6,11 1,1 0 0 0 7,12 1,1 0 0 0 8,11 1,1 0 0 0 7,10 Z M 25,10 A 1,1 0 0 0 24,11 1,1 0 0 0 25,12 1,1 0 0 0 26,11 1,1 0 0 0 25,10 Z M 7,27 A 1,1 0 0 0 6,28 1,1 0 0 0 7,29 1,1 0 0 0 8,28 1,1 0 0 0 7,27 Z M 25,27 A 1,1 0 0 0 24,28 1,1 0 0 0 25,29 1,1 0 0 0 26,28 1,1 0 0 0 25,27 Z"/>
 <path style="opacity:0.2" d="M 7,3 A 1,1 0 0 0 6,4 1,1 0 0 0 6.1543,4.5 1,1 0 0 1 7,4 1,1 0 0 1 7.8535,4.4863 1,1 0 0 0 8,4 1,1 0 0 0 7,3 Z M 10,3 C 9,3 9,4 9,4 9,5.13 8.1,6 7,6 6.07,6 6,7 6,7 V 8 C 6,8 6.07,7 7,7 8.1,7 9,6.13 9,5 9,5 9,4 10,4 H 22 C 23.05,4 23,5 23,5 23,6.09 23.88,7 25,7 26,7 26,8 26,8 V 7 C 26,7 26,6 25,6 23.88,6 23,5.09 23,4 23,4 23.05,3 22,3 Z M 25,3 A 1,1 0 0 0 24,4 1,1 0 0 0 24.154,4.5 1,1 0 0 1 25,4 1,1 0 0 1 25.854,4.4863 1,1 0 0 0 26,4 1,1 0 0 0 25,3 Z M 7,10 A 1,1 0 0 0 6,11 1,1 0 0 0 6.1543,11.5 1,1 0 0 1 7,11 1,1 0 0 1 7.8535,11.486 1,1 0 0 0 8,11 1,1 0 0 0 7,10 Z M 25,10 A 1,1 0 0 0 24,11 1,1 0 0 0 24.154,11.5 1,1 0 0 1 25,11 1,1 0 0 1 25.854,11.486 1,1 0 0 0 26,11 1,1 0 0 0 25,10 Z M 8.9355,11.5 C 8.7922,12.083 8.4354,12.514 8.2305,12.75 6.6705,14.54 6,16.85 6,19.25 V 19.34 19.609 C 6,19.728 6.0049,19.846 6.0098,19.963 6.0617,17.667 6.7331,15.468 8.2305,13.75 8.4905,13.45 9,12.84 9,12 9,11.827 8.9766,11.66 8.9355,11.5 Z M 23.059,11.533 C 23.022,11.684 23,11.839 23,12 23,13 23.5,13.45 23.77,13.75 25.267,15.468 25.938,17.667 25.99,19.963 25.995,19.846 26,19.728 26,19.609 V 19.32 19.25 C 26,16.85 25.33,14.54 23.77,12.75 23.554,12.51 23.196,12.169 23.059,11.533 Z M 7,27 A 1,1 0 0 0 6,28 1,1 0 0 0 6.1543,28.5 1,1 0 0 1 7,28 1,1 0 0 1 7.8535,28.486 1,1 0 0 0 8,28 1,1 0 0 0 7,27 Z M 25,27 A 1,1 0 0 0 24,28 1,1 0 0 0 24.154,28.5 1,1 0 0 1 25,28 1,1 0 0 1 25.854,28.486 1,1 0 0 0 26,28 1,1 0 0 0 25,27 Z"/>
 <path style="opacity:0.2" d="m16.2864 12c-0.61 0-1.2012 0.1402-1.7464 0.3302l2.8792 2.8768c0.5917 0.5912 0.5917 1.531 0 2.1223l-1.0856 1.0847c-0.5917 0.5912-1.5323 0.5912-2.124 0l-2.8792-2.8768c-0.1901 0.5447-0.3304 1.1355-0.3304 1.745 0 2.9172 2.3668 5.2821 5.2864 5.2821 0.61 0 1.2012-0.1402 1.7464-0.3301l7.8422 7.8523c2.5207 2.5256 5.6804-0.7316 3.2568-3.1598l-7.8894-7.8995c0.1901-0.5447 0.3304-1.1355 0.3304-1.745 0-2.9172-2.3668-5.2821-5.2864-5.2821z"/>
 <path style="fill:#4f4f4f" d="m16.2864 11c-0.61 0-1.2012 0.1402-1.7464 0.3302l2.8792 2.8768c0.5917 0.5912 0.5917 1.531 0 2.1223l-1.0856 1.0847c-0.5917 0.5912-1.5323 0.5912-2.124 0l-2.8792-2.8768c-0.1901 0.5447-0.3304 1.1355-0.3304 1.745 0 2.9172 2.3668 5.2821 5.2864 5.2821 0.61 0 1.2012-0.1402 1.7464-0.3301l7.8422 7.8523c2.5207 2.5256 5.6804-0.7316 3.2568-3.1598l-7.8894-7.8995c0.1901-0.5447 0.3304-1.1355 0.3304-1.745 0-2.9172-2.3668-5.2821-5.2864-5.2821z"/>
</svg>
